X:382
T:Market Rasen Quickstep
M:4/4
L:1/8
K:G
D2 | G2 GA G2 B2 | d4 B2 G2 | A2 Ac B2 Bd | A2 A4 D2 | 
G2 GA G2 B2 | d4 B2 G2 | A2 AG A2 B2 | G4 G2 :| 
d2 | e2 ed e2 g2 | d4 B2 G2 | A2 Ac B2 Bd | A2 A4 d2 | 
e2 ed e2 g2 | d4 B2 G2 | A2 AG A2 B2 | G4 G2 :| 

